addons/godot-flexbox/assets/light/AlignItemsCenterColumnIcon.svg

<svg xmlns="http://www.w3.org/2000/svg" width="16" height="16" fill="none" data-wf-icon="AlignItemsCenterColumnIcon" viewBox="0 0 24 24"><path fill="#474747" d="M12 0h-1.5v4.5h-6v6h6V12H6v6h4.5v6H12v-6h4.5v-6H12v-1.5h6v-6h-6V0Z"/></svg>

<svg data-wf-icon="AlignItemsCenterColumnIcon" width="16" height="16" viewBox="0 0 24 24" fill="none" xmlns="http://www.w3.org/2000/svg"><path d="M12 0H10.5V4.5H4.5V10.5H10.5V12H6V18H10.5V24H12V18H16.5V12H12V10.5H18V4.5H12V0Z" fill="#474747"></path></svg>
